src/icons/SVG/32px/Payment_Cards_Monochrome_OneyX4_32px.svg

<svg width="32" height="32" viewBox="0 0 32 32" fill="none" xmlns="http://www.w3.org/2000/svg">
<g id="Square"> </g>
<g id="Icon">
<path id="Subtract" fill-rule="evenodd" clip-rule="evenodd" d="M25.3019 15.8761C25.3019 21.0821 21.0816 25.3024 15.8756 25.3024C10.6695 25.3024 6.44922 21.0821 6.44922 15.8761C6.44922 10.67 10.6695 6.44971 15.8756 6.44971C21.0816 6.44971 25.3019 10.67 25.3019 15.8761ZM15.0791 18.75H13.7148V17.3951H10.9399V16.2443L12.5455 12.3H14.0582L12.4991 16.1608H13.7148V14.7687H15.0791V16.1608H15.7658V17.3951H15.0791V18.75ZM21.0371 13.8394L19.3676 16.1736L21.0123 18.6369H19.3899L18.5267 17.3643L17.7503 18.6418H16.1899L17.785 16.258L16.1899 13.8394H17.8247L18.6458 15.0921L19.4743 13.8394H21.0371Z" fill="black"/>
</g>
</svg>

<svg xmlns="http://www.w3.org/2000/svg" viewBox="0 0 32 32">
  <g id="Square"> </g>
  <path fill-rule="evenodd" d="M25.302 15.876a9.426 9.426 0 01-9.426 9.426 9.426 9.426 0 119.426-9.426zM15.079 18.75h-1.364v-1.355H10.94v-1.15l1.606-3.945h1.512L12.5 16.16h1.216V14.77h1.364v1.392h.687v1.234h-.687v1.355zm5.958-4.91l-1.67 2.334 1.645 2.463H19.39l-.863-1.273-.777 1.278h-1.56l1.595-2.384-1.595-2.419h1.635l.82 1.253.83-1.253h1.562z"/>
</svg>
